X:25
T:Polska fr{\aa}n Medelpad
R:polska J
Z:id:hn-jp-25
M:3/4
L:1/16
K:Am
ABA^G A2B2 cBcd|e2eg (3^fgfed f2e2|ABA^G A2B2 cBcd|d2e2 BeB=G E4|
ABA^G A2B2 cBcd|e2eg (3^fgfed f2e2|e2ae Acea Acec|E^GBG A8:|
|:A2a2 g2a2 f2(3fgf|e2ae Acea Acec|A2Bc d2fd c2BA|A2=G2 G2e2 E4|
A2a2 g2a2 f2(3fgf|e2ae Acea Acec|A2Bc d2Bd cecA|E^GBG A8:|
<end>
<start>
